src/icons/icons_set_02/022-itineraire.svg

<svg height="50" viewBox="0 0 50 50" width="50" xmlns="http://www.w3.org/2000/svg"><path d="m36.005 2.00000118v-2.00000118l5.9914286 4.18430677-5.9914286 4.31650956v-2.50081064c-.2963904.00096507-.8957917.12175931-1.4681874.46518034-.9551793.57308029-1.5296697 1.60711395-1.5296697 3.53624257v9.3266249l-.1025883.307838c-.1972413.5918648-.5844452 1.3663955-1.2359985 2.1483339-1.1369295 1.3644453-2.7054891 2.2200603-4.6621275 2.2200603s-3.5251981-.855615-4.6621275-2.2200603c-.6515534-.7819384-1.0387573-1.5564691-1.2359986-2.1483339l-.1025882-.307838v-9.49211112l.0271994-.16323563c.0003718-.00223124.0059331-.04395123.0130438-.11863284.0578795-.60789543.0151831-1.31206203-.1877658-1.92083635-.357675-1.0728974-1.1048175-1.63323756-2.853906-1.63323756s-2.4962309.56034016-2.853906 1.63323756c-.2029489.60877432-.2456453 1.31294092-.1877657 1.92083635.0071106.07468161.0126719.1164016.0130437.11863284l.0271994.16323563v9.49211112l-.1025882.307838c-.1972413.5918648-.5844452 1.3663955-1.2359985 2.1483339-1.1369295 1.3644453-2.7054891 2.2200603-4.66212754 2.2200603-1.9566384 0-3.52519805-.855615-4.66212752-2.2200603-.65155332-.7819384-1.03875721-1.5564691-1.23599853-2.1483339l-.10258824-.307838v-9.49211112l.02719946-.16323563c.00037179-.00223124.00593306-.04395123.01304372-.11863284.05787955-.60789543.01518316-1.31206203-.18776576-1.92083635-.35767504-1.0728974-1.10481748-1.63323756-2.85390599-1.63323756v-4c3.50216149 0 5.75582262 1.69019556 6.64859401 4.36819101.40667162 1.21986966.48124923 2.44983462.37506906 3.56502023-.00722829.07591706-.01476059.14450656-.0222345.20531746v8.4662772c.089223.1738292.22747258.3978617.4115918.6188258.42579375.5110012.92013589.780654 1.58912249.780654s1.16332874-.2696528 1.58912244-.780654c.1841193-.2209641.3223688-.4449966.4115918-.6188258v-8.4662772c-.0074739-.0608109-.0150062-.1294004-.0222345-.20531746-.1061801-1.11518561-.0316025-2.34515057.3750691-3.56502023.8927714-2.67799545 3.1464325-4.36819101 6.648594-4.36819101s5.7558226 1.69019556 6.648594 4.36819101c.4066716 1.21986966.4812493 2.44983462.3750691 3.56502023-.0072283.07591706-.0147606.14450656-.0222345.20531746v8.4662772c.089223.1738292.2274726.3978617.4115918.6188258.4257937.5110012.9201359.780654 1.5891225.780654s1.1633287-.2696528 1.5891225-.780654c.1841192-.2209641.3223688-.4449966.4115918-.6188258v-8.6033773c0-3.32212143 1.3010452-5.66389135 3.4717588-6.96625749 1.2992109-.77948947 2.5712657-1.03453568 3.5260983-1.03516992z" transform="translate(3.995 12.997143)"/></svg>

<?xml version="1.0" encoding="UTF-8"?>
<svg width="50px" height="50px" viewBox="0 0 50 50" version="1.1" xmlns="http://www.w3.org/2000/svg" xmlns:xlink="http://www.w3.org/1999/xlink">
    <!-- Generator: Sketch 52.2 (67145) - http://www.bohemiancoding.com/sketch -->
    <title>022-itineraire</title>
    <desc>Created with Sketch.</desc>
    <g id="022-itineraire" stroke="none" stroke-width="1" fill="none" fill-rule="evenodd">
        <g id="Group" transform="translate(3.995000, 12.997143)" fill="#000000" fill-rule="nonzero">
            <g id="046-itineraire">
                <g id="ICONSET-01">
                    <g id="046-itineraire">
                        <path d="M36.005,2.00000118 L36.005,0 L41.9964286,4.18430677 L36.005,8.50081633 L36.005,6.00000569 C35.7086096,6.00097076 35.1092083,6.121765 34.5368126,6.46518603 C33.5816333,7.03826632 33.0071429,8.07229998 33.0071429,10.0014286 L33.0071429,19.3280535 L32.9045546,19.6358915 C32.7073133,20.2277563 32.3201094,21.002287 31.6685561,21.7842254 C30.5316266,23.1486707 28.963067,24.0042857 27.0064286,24.0042857 C25.0497902,24.0042857 23.4812305,23.1486707 22.3443011,21.7842254 C21.6927477,21.002287 21.3055438,20.2277563 21.1083025,19.6358915 L21.0057143,19.3280535 L21.0057143,9.83594238 L21.0329137,9.67270675 C21.0332855,9.67047551 21.0388468,9.62875552 21.0459575,9.55407391 C21.103837,8.94617848 21.0611406,8.24201188 20.8581917,7.63323756 C20.5005167,6.56034016 19.7533742,6 18.0042857,6 C16.2551972,6 15.5080548,6.56034016 15.1503797,7.63323756 C14.9474308,8.24201188 14.9047344,8.94617848 14.962614,9.55407391 C14.9697246,9.62875552 14.9752859,9.67047551 14.9756577,9.67270675 L15.0028571,9.83594238 L15.0028571,19.3280535 L14.9002689,19.6358915 C14.7030276,20.2277563 14.3158237,21.002287 13.6642704,21.7842254 C12.5273409,23.1486707 10.9587813,24.0042857 9.00214286,24.0042857 C7.04550446,24.0042857 5.47694481,23.1486707 4.34001534,21.7842254 C3.68846202,21.002287 3.30125813,20.2277563 3.10401681,19.6358915 L3.00142857,19.3280535 L3.00142857,9.83594238 L3.02862803,9.67270675 C3.02899982,9.67047551 3.03456109,9.62875552 3.04167175,9.55407391 C3.0995513,8.94617848 3.05685491,8.24201188 2.85390599,7.63323756 C2.49623095,6.56034016 1.74908851,6 0,6 L0,2 C3.50216149,2 5.75582262,3.69019556 6.64859401,6.36819101 C7.05526563,7.58806067 7.12984324,8.81802563 7.02366307,9.93321124 C7.01643478,10.0091283 7.00890248,10.0777178 7.00142857,10.1385287 L7.00142857,18.6048059 C7.09065157,18.7786351 7.22890115,19.0026676 7.41302037,19.2236317 C7.83881412,19.7346329 8.33315626,20.0042857 9.00214286,20.0042857 C9.67112946,20.0042857 10.1654716,19.7346329 10.5912653,19.2236317 C10.7753846,19.0026676 10.9136341,18.7786351 11.0028571,18.6048059 L11.0028571,10.1385287 C10.9953832,10.0777178 10.9878509,10.0091283 10.9806226,9.93321124 C10.8744425,8.81802563 10.9490201,7.58806067 11.3556917,6.36819101 C12.2484631,3.69019556 14.5021242,2 18.0042857,2 C21.5064472,2 23.7601083,3.69019556 24.6528797,6.36819101 C25.0595513,7.58806067 25.134129,8.81802563 25.0279488,9.93321124 C25.0207205,10.0091283 25.0131882,10.0777178 25.0057143,10.1385287 L25.0057143,18.6048059 C25.0949373,18.7786351 25.2331869,19.0026676 25.4173061,19.2236317 C25.8430998,19.7346329 26.337442,20.0042857 27.0064286,20.0042857 C27.6754152,20.0042857 28.1697573,19.7346329 28.5955511,19.2236317 C28.7796703,19.0026676 28.9179199,18.7786351 29.0071429,18.6048059 L29.0071429,10.0014286 C29.0071429,6.67930717 30.3081881,4.33753725 32.4789017,3.03517111 C33.7781126,2.25568164 35.0501674,2.00063543 36.005,2.00000119 Z" id="Combined-Shape"></path>
                    </g>
                </g>
            </g>
        </g>
    </g>
</svg>
